X:23
T:The Fisherman's Widow
C:P. Mahony
M:6/8
L:1/8
Q:1/4=70
K:D
|: F2 G AFA | dcA AGF | G3 ABc | ded cAG |
F2 G AFA | dcA AGF | GFG ABG | AFD D3 :|
d2 e f2 d | dcA ABc | d2 ef2 a | agd dcA |
|1 d2 e f2 d | ecA AGF | GFG ABG | AFD D3 :|2
 afa geg | FED cAF | G2 A BAG | AFD D3 ||

